X:1
T: Glengarry's March
C:
R:Reel
Q: 232
K:A
M:4/4
L:1/8
|:ed|c2 A2 A2 Bc|d2 B2 B2 ed|c2 A2 A2 Bc|d=c BA =G2 ed|
c2 A2 A2 Bc|d2 B2 B2 ed|c2 Ac B2 GB|A4 A2:|
|:ed|c2 e2 e2 =g2|dB =GB d2 ed|c2 e2 e2 fg|ag fe a2 ed|
c2 e2 e2 =g2|dB =GB d2 ed|c2 Ac B2 GB|A4 A2:|
